X:1
T:I Stood Outside the Gate
T:Hubert Platt Main
T:I Stood Outside the Gate
T:Public Domain
T:Public Domain
C:Hubert Platt Main
Z:Public Domain
%%score ( 1 2 ) ( 3 4 )
L:1/8
M:6/8
K:Bb
V:1 treble 
V:2 treble 
V:3 bass 
V:4 bass 
V:1
 [DF] | [DB]2 [DB] ([GB][FA])[EG] | [DF]3- [DF]2 [B,D] | [DF]2 [B,D] ([A,C][B,D])[CE] | %4
w: 1.~I|stood out- side * the|gate, * A|poor, way- far- * ing|
w: 2.~Oh,|“Mer- cy!” loud * I|cried, * “Now|give me rest * from|
w: 3.~In|Mer- cy’s guise * I|knew * The|Sav- ior long * a-|
 [B,D]3- [B,D]2 [DF] | [DB]2 [FB] ([GB][FA])[EG] | [DF]3 [Fd]3 | [Fc]2 [FA] ([Fc][=EB])[EG] | %8
w: child; * With-|in my heart * there|beat A|tem- pest loud * and|
w: sin!” * “I|will,” a voice * re-|plied; And|Mer- cy let * me|
w: bused, * Who|oft- en sought * my|heart, And|wept when I * re-|
 F3- F2 F | [EA]2 [EA] ([FB][EA])[DB] [Fc]3- [Fc]2 F | [Fc]2 [Fc] (dc)[Fd] | [Fe]3 [Fe]3 | %12
w: wild; * A|pressed my soul, * That I * might|too late; And * oh,|trem- bled|
w: in; * She|bleed- ing wounds, * And soothed * my|op- pressed; She * washed|way my|
w: fused; * Oh!|blest re- turn * For all * my|of sin! I * stood|side the|
 [Fd]2 [Fd] (cB)[EG] | [DF]3- [DF]2 [B,D] | [DF]2 [B,D] ([A,C][B,D])[CE] | [B,D]3- [B,D]2 [DF] | %16
w: sore, And prayed * out-|the * gate,|And prayed out- * side|the * gate.|
w: guilt And gave * me|and * rest,|And gave me * peace|and * rest.|
w: gate, And Je- * sus|me * in,|And Je- sus * let|me * in.|
 [EG]3 [FB]3 | ([EA]3 [EA][DB])[Ec] | [DB]3- [DB]2 |] %19
w: |||
w: |||
w: |||
V:2
 x | x6 | x6 | x6 | x6 | x6 | x6 | x6 | F3- F2 F | x11 F | x3 F2 x | x6 | x3 G2 x | x6 | x6 | x6 | %16
w: ||||||||fear * op-|be|I||side||||
w: ||||||||bound * my|heart|a-||peace||||
w: ||||||||what * a|years|out-||let||||
 x6 | x6 | x5 |] %19
w: |||
w: |||
w: |||
V:3
 [B,,B,] | [B,,B,]2 [B,,B,] [B,,B,]2 [B,,B,] | [B,,B,]3- [B,,B,]2 [B,,F,] | %3
 [B,,B,]2 [B,,F,] F,2 [F,,F,] | [B,,F,]3- [B,,F,]2 [B,,B,] | [B,,F,]2 [D,B,] [E,B,]2 [E,B,] | %6
 [B,,B,]3 [B,,B,]3 | [C,A,]2 [C,C] (A,G,)[C,B,] | [F,A,]3- [F,A,]2 [F,A,] | %9
 [F,C]2 [F,C] (DC)[F,B,] [F,A,]3- [F,A,]2 F, | [F,A,]2 [F,A,] (B,A,)[F,B,] | [F,C]3 [A,C]3 | %12
 B,2 [B,,B,] [E,B,]2 [E,B,] | [B,,B,]3- [B,,B,]2 [B,,F,] | [B,,B,]2 [B,,F,] F,2 [F,,F,] | %15
 [B,,F,]3- [B,,F,]2 [B,,B,] | [E,B,]3 [D,B,]3 | ([C,F,]3 CB,)[F,,A,] | [B,,B,]3- [B,,B,]2 |] %19
V:4
 x | x6 | x6 | x3 F,2 x | x6 | x6 | x6 | x3 C,2 x | x6 | x3 F,2 x5 F, x | x3 F,2 x | x6 | B,2 x4 | %13
 x6 | x3 F,2 x | x6 | x6 | x3 F,,2 x | x5 |] %19

